X: 21794
Q: "Slowly."
M: C
L: 1/8
K: C
c2(c>d) fedc | {c}B>ABc d2G2 |\
c2c>d e>fed | c2g>a g2G2 |\
c>Bcd {f}e2dc | B>ABc {e}d2cB |\
|: G |\
c2g2 e>fgc | {c}B>AB>c {d}d2G2 |\
c2g>f e>fed | c2g>a g2G2 |\
c2g2 agfe | fedc B>cdB |\


